_src/_includes/img/brands/logomark/dropbox.svg

<svg viewBox="0 0 1000 1000" xmlns="http://www.w3.org/2000/svg"><path d="m290.75 143-209.75 134.493 209.75 132.515 209.75-132.515zm419.5 0-209.75 134.493 209.75 132.515 209.75-132.515zm-629.25 401.501 209.75 134.493 209.75-134.493-209.75-134.493zm629.25-134.493-209.75 134.493 209.75 134.493 209.75-134.493zm-419.5 312.499 209.75 134.493 209.75-134.493-209.75-132.515z" fill="#0062ff"/></svg>

<svg viewBox="0 0 1000 1000" xmlns="http://www.w3.org/2000/svg"><path d="M290.75 143L81 277.493l209.75 132.515L500.5 277.493 290.75 143zm419.5 0L500.5 277.493l209.75 132.515L920 277.493 710.25 143zM81 544.501l209.75 134.493L500.5 544.501 290.75 410.008 81 544.501zm629.25-134.493L500.5 544.501l209.75 134.493L920 544.501 710.25 410.008zm-419.5 312.499L500.5 857l209.75-134.493L500.5 589.992 290.75 722.507z" fill="#0062FF" fill-rule="nonzero"/></svg>
